logos/abeg/abeg.svg

<?xml version="1.0" encoding="UTF-8"?>
<svg width="121px" height="47px" viewBox="0 0 121 47" version="1.1" xmlns="http://www.w3.org/2000/svg">
<g stroke="none" stroke-width="1" fill="none" fill-rule="evenodd">
        <path d="M18.2526147,28.4702259 L18.301331,28.0359343 C18.8372105,25.3336756 17.5705863,24.1755647 13.5758485,24.1755647 C9.72725962,24.1755647 8.0221886,25.3336756 7.53502546,28.0359343 L7.43759283,28.5184805 C6.90171336,31.2207392 8.6555007,32.4271047 12.114359,32.4271047 C15.67065,32.4271047 17.8141679,30.7864476 18.2526147,28.4702259 Z M31.8444665,26.4917864 L36.4241024,0.817639053 C36.5084926,0.344534255 36.9199215,1.08748045e-15 37.400494,0 L42.743723,0 C43.2914808,-6.55732992e-16 43.7355263,0.444045453 43.7355263,0.991803279 C43.7355263,1.04965229 43.7304651,1.1073904 43.7204005,1.16435717 L42.2210416,9.65092402 L42.2210416,9.65092402 C44.0722615,8.29979466 46.1183467,7.33470226 49.869503,7.33470226 C57.1769502,7.33470226 60.0512128,12.1601643 59.0281701,17.9024641 L57.3230991,27.3603696 C56.1051913,34.2607803 52.0617371,37.5903491 43.0492189,37.5903491 C34.5725801,37.5903491 30.675275,32.9096509 31.8444665,26.4917864 Z M50.2105172,26.2022587 L51.574574,18.6262834 C52.1104534,15.6344969 50.9412619,13.6078029 46.9952404,13.6078029 C43.0005026,13.6078029 41.1492826,15.6344969 40.6134032,18.6262834 L39.2493464,26.2022587 C38.7134669,29.1940452 39.8826584,31.2207392 43.8773963,31.2207392 C47.8234178,31.2207392 49.6746377,29.1940452 50.2105172,26.2022587 Z M89.03742,24.4650924 L70.2816389,24.4650924 L69.8919083,26.7813142 C69.4534615,29.338809 70.2329225,31.6550308 74.9096888,31.6550308 C78.9531429,31.6550308 80.9017955,30.4969199 81.3402423,28.0841889 C81.3685808,27.9438393 81.4919188,27.8429158 81.6351008,27.8429158 L87.4767285,27.8429158 C87.9403215,27.8429158 88.3161378,28.2187321 88.3161378,28.6823251 C88.3161378,28.7243974 88.3129747,28.7664102 88.3066753,28.8080082 L88.3066753,28.8080082 L88.3066753,28.8080082 C87.2836327,34.5020534 83.2401786,37.5903491 74.325093,37.5903491 C65.50744,37.5903491 61.7075675,32.8131417 62.8280427,26.6848049 L64.3869648,17.7577002 C65.7023053,10.8090349 69.7457594,7.33470226 78.7582776,7.33470226 C87.4297816,7.33470226 91.2783705,12.0154004 90.1578953,18.288501 L89.03742,24.4650924 Z M71.4021141,18.2402464 L71.1585325,19.7361396 L82.8017317,19.7361396 L83.0940296,18.1919918 C83.6299091,15.1036961 82.3632849,13.2700205 78.1736818,13.2700205 C73.8379298,13.2700205 71.9379936,15.2967146 71.4021141,18.2402464 Z M106.08813,29.0010267 C110.082868,29.0010267 111.934088,26.9743326 112.469967,24.0790554 L113.395577,18.7227926 C113.931457,15.7792608 112.762265,13.8008214 108.816244,13.8008214 C104.870222,13.8008214 103.019002,15.7792608 102.483123,18.7227926 L101.557513,24.0790554 C101.021633,26.9743326 102.142109,29.0010267 106.08813,29.0010267 Z M109.498272,7.33470226 C117.974911,7.33470226 121.969649,12.1119097 120.800457,18.6262834 L117.682613,36.0944559 C116.221124,44.0564682 111.690506,47 103.749747,47 L102.92157,47 C95.8577041,47 91.2783705,43.4774127 92.0091152,37.7351129 C92.0655589,37.427615 92.3335815,37.2043121 92.6462169,37.2043121 L99.0729809,37.2043121 C98.6832503,39.4240246 100.290889,40.9681725 103.701031,40.9681725 C108.036783,40.9681725 109.839286,38.9897331 110.32645,36.2392197 L111.008478,32.6201232 C109.157258,34.0677618 107.159889,34.8880903 103.262584,34.8880903 C96.5397325,34.8880903 93.0808742,30.3039014 94.2013494,23.9825462 L95.2731083,17.8542094 C96.4910162,10.9537988 100.53447,7.33470226 109.498272,7.33470226 Z M21.4756154,3.80359947 C22.0233732,3.80359947 22.4674187,4.24764492 22.4674187,4.79540275 C22.4674187,4.87724105 22.4572895,4.95876474 22.4372623,5.03811469 L21.6984627,7.9721449 C26.1687333,9.42247978 28.342532,13.2097637 27.5087145,17.9024641 L25.7549272,27.7464066 C24.6748653,33.76913 21.1641279,36.570822 15.7082024,37.3804152 L15.0573283,39.9551 C14.9461592,40.3955621 14.5499561,40.7041913 14.0956815,40.7041913 L8.26091191,40.7041913 C7.71315408,40.7041913 7.26910863,40.2601459 7.26910863,39.712388 C7.26910863,39.6305497 7.27923777,39.5490261 7.29926506,39.4696761 L7.81779624,37.4146362 C2.4613944,36.5482502 -0.543048713,33.2335689 0.0814292998,28.6149897 L0.178861929,27.9394251 C0.860890336,22.6796715 4.46589763,19.5913758 12.8938201,19.5913758 C16.1090969,19.5913758 18.4961963,20.073922 19.6166715,20.701232 L20.0551183,18.1437372 C20.5909978,15.3449692 19.3243736,13.463039 15.7193663,13.463039 C12.6989548,13.463039 10.5067207,14.476386 10.0682738,17.0338809 L3.0531245,17.0338809 C3.88548137,11.1758156 7.08151865,8.01022152 13.9519891,7.43182862 L14.679199,4.5526908 C14.7903681,4.11222868 15.1865712,3.80359947 15.6408459,3.80359947 L21.4756154,3.80359947 Z" id="Splash-Screen-Logo-Copy" fill="#753FF6"/>
    </g>
</svg>

<svg width="121" height="47" xmlns="http://www.w3.org/2000/svg">
  <path d="M18.253 28.47l.048-.434c.536-2.702-.73-3.86-4.725-3.86-3.849 0-5.554 1.158-6.041 3.86l-.097.482c-.536 2.703 1.218 3.91 4.676 3.91 3.557 0 5.7-1.642 6.139-3.958zm13.591-1.978L36.424.818A.992.992 0 0137.4 0h5.344a.992.992 0 01.976 1.164l-1.499 8.487c1.851-1.351 3.897-2.316 7.649-2.316 7.307 0 10.181 4.825 9.158 10.567l-1.705 9.458c-1.218 6.9-5.261 10.23-14.274 10.23-8.476 0-12.374-4.68-11.205-11.098zm18.367-.29l1.364-7.576c.535-2.992-.634-5.018-4.58-5.018-3.994 0-5.846 2.026-6.382 5.018l-1.364 7.576c-.536 2.992.634 5.019 4.628 5.019 3.946 0 5.798-2.027 6.334-5.019zm38.826-1.737H70.282l-.39 2.316c-.439 2.558.34 4.874 5.018 4.874 4.043 0 5.992-1.158 6.43-3.57a.3.3 0 01.295-.242h5.842a.84.84 0 01.83.965c-1.023 5.694-5.067 8.782-13.982 8.782-8.818 0-12.617-4.777-11.497-10.905l1.559-8.927c1.315-6.949 5.359-10.423 14.371-10.423 8.672 0 12.52 4.68 11.4 10.954l-1.12 6.176zM71.402 18.24l-.243 1.496h11.643l.292-1.544c.536-3.088-.73-4.922-4.92-4.922-4.336 0-6.236 2.027-6.772 4.97zm34.686 10.761c3.995 0 5.846-2.027 6.382-4.922l.926-5.356c.535-2.944-.634-4.922-4.58-4.922s-5.797 1.978-6.333 4.922l-.925 5.356c-.536 2.895.584 4.922 4.53 4.922zm3.41-21.666c8.477 0 12.472 4.777 11.302 11.291l-3.117 17.468C116.22 44.056 111.69 47 103.75 47h-.828c-7.064 0-11.644-3.523-10.913-9.265a.648.648 0 01.637-.53h6.427c-.39 2.219 1.218 3.763 4.628 3.763 4.336 0 6.138-1.978 6.625-4.729l.682-3.619c-1.85 1.448-3.848 2.268-7.745 2.268-6.723 0-10.182-4.584-9.062-10.905l1.072-6.129c1.218-6.9 5.261-10.52 14.225-10.52zM21.476 3.804a.992.992 0 01.961 1.234l-.739 2.934c4.47 1.45 6.645 5.238 5.81 9.93l-1.753 9.844c-1.08 6.023-4.59 8.825-10.047 9.634l-.65 2.575a.992.992 0 01-.962.75H8.26a.992.992 0 01-.962-1.235l.519-2.055c-5.357-.867-8.361-4.181-7.737-8.8l.098-.676c.682-5.26 4.287-8.348 12.715-8.348 3.215 0 5.602.483 6.723 1.11l.438-2.557c.536-2.799-.73-4.681-4.336-4.681-3.02 0-5.212 1.013-5.65 3.57H3.052c.832-5.857 4.029-9.023 10.899-9.601l.727-2.88a.992.992 0 01.962-.748h5.835z" fill="#753FF6" fill-rule="evenodd"/>
</svg>
